Adwaita++-Dark/actions/22/account-types-expense.svg

<svg height="22" width="22" xmlns="http://www.w3.org/2000/svg">
  <path d="m11 6v3h-8v4h8v3l4.5-2.5 4.5-2.5-4.5-2.5z" fill="#e6ddff"/>
</svg>

<svg xmlns="http://www.w3.org/2000/svg" width="22" height="22" version="1.1">
 <defs>
  <style id="current-color-scheme" type="text/css">
   .ColorScheme-Text { color:#E6DDFF; } .ColorScheme-Highlight { color:#4285f4; }
  </style>
 </defs>
 <path style="fill:currentColor" class="ColorScheme-Text" d="M 11 6 L 11 9 L 3 9 L 3 13 L 11 13 L 11 16 L 15.5 13.5 L 20 11 L 15.5 8.5 L 11 6 z"/>
</svg>
